assets/icons/qvision/signal_cellular_alt.svg

<svg xmlns="http://www.w3.org/2000/svg" height="24" viewBox="0 0 24 24" width="24"><path d="M0 0h24v24H0z" fill="none"/><path d="M17 4h3v16h-3zM5 14h3v6H5zm6-5h3v11h-3z"/></svg>

<svg width="24" height="24" viewBox="0 0 24 24" fill="none" xmlns="http://www.w3.org/2000/svg">
<g clip-path="url(#clip0_147_2463)">
<path d="M17 4H20V20H17V4ZM5 14H8V20H5V14ZM11 9H14V20H11V9Z" fill="#323232"/>
</g>
<defs>
<clipPath id="clip0_147_2463">
<rect width="24" height="24" fill="white"/>
</clipPath>
</defs>
</svg>
